X: 1
T: New May Moon, The
M: 6/8
L: 1/8
R: jig
K: Gmaj
|:G3 B,2D|EDB, D2D|G2G AGA|B2G GAB|
c2A c2G|A2G FED|GFE DB,D|1 E2D DEF:|2 E2D D3||
|:ded BGB|ded BGB|c2A ABc|e3 d3|
dBd cAc|BGB AGF|GFE DB,D|E2D D3:|
